icon/pk/monkey.svg

<svg viewBox="0 0 48 48" fill="none" xmlns="http://www.w3.org/2000/svg" height="1em" width="1em">
  <path d="M13.2 21C12.4312 19.531 12 17.8817 12 16.1389C12 9.98704 17.3726 5 24 5C30.6274 5 36 9.98704 36 16.1389C36 17.8817 35.5688 19.531 34.8 21" stroke="black" stroke-width="4"/>
  <ellipse cx="24" cy="31" rx="15" ry="12" fill="#2F88FF" stroke="black" stroke-width="4"/>
  <path d="M30.5177 33.8742C26.8486 37.5433 20.7965 37.44 17 33.6435" stroke="white" stroke-width="4" stroke-linecap="round"/>
  <path d="M12 23C8.68629 23 6 20.7614 6 18C6 15.2386 8.68629 13 12 13" stroke="black" stroke-width="4" stroke-linecap="round"/>
  <path d="M36 23C39.3137 23 42 20.7614 42 18C42 15.2386 39.3137 13 36 13" stroke="black" stroke-width="4" stroke-linecap="round"/>
  <circle cx="20" cy="14" r="2" fill="black"/>
  <circle cx="28" cy="14" r="2" fill="black"/>
</svg>

<svg width="48" height="48" fill="none" xmlns="http://www.w3.org/2000/svg"><path d="M13.2 21a10.442 10.442 0 0 1-1.2-4.861C12 9.987 17.373 5 24 5s12 4.987 12 11.139c0 1.743-.431 3.392-1.2 4.861" stroke="#000" stroke-width="4"/><ellipse cx="24" cy="31" rx="15" ry="12" fill="#2F88FF" stroke="#000" stroke-width="4"/><path d="M30.518 33.874c-3.67 3.67-9.721 3.566-13.518-.23" stroke="#fff" stroke-width="4" stroke-linecap="round"/><path d="M12 23c-3.314 0-6-2.239-6-5s2.686-5 6-5M36 23c3.314 0 6-2.239 6-5s-2.686-5-6-5" stroke="#000" stroke-width="4" stroke-linecap="round"/><circle cx="20" cy="14" r="2" fill="#000"/><circle cx="28" cy="14" r="2" fill="#000"/></svg>
